static/logos/wordpress-wordmark-color.svg

<svg width="100" height="21" viewBox="0 0 100 21" fill="none" xmlns="http://www.w3.org/2000/svg">
<g clip-path="url(#clip0_1_372)">
<path d="M37.4567 5.51181L35.2598 13.9528L33.063 5.51181H30.8504L31.3622 7.32283L29.4331 14.2362L27.3228 5.51181H25.1968L28.189 16.5354H30.5197L32.315 10.6378L33.9921 16.5354H36.315L39.4646 5.51181H37.4567ZM59.811 8.70866C59.3305 8.59748 58.8396 8.53677 58.3465 8.52756C55.6693 8.52756 54.2047 10.315 54.2047 12.937C54.2047 15.5433 55.6693 16.7323 57.3937 16.7323C58.3105 16.7024 59.1935 16.3795 59.9134 15.811V16.5354H61.748V5.51181H59.811V8.70866ZM59.811 14.2835C59.1811 14.8583 58.5906 15.1732 57.9685 15.1732C56.8976 15.1732 56.2126 14.4646 56.2126 12.8031C56.2126 11.0079 57.063 10.0709 58.5433 10.0709C58.9764 10.0709 59.4094 10.1575 59.8031 10.315V14.2835H59.811ZM50.5512 10H50.4803V8.70866H48.6693V16.5354H50.6142V11.874C51.2205 10.7244 51.9606 10.3465 53.1968 10.3465H53.3937V8.66142C53.2185 8.64205 53.0424 8.63157 52.8661 8.62992C51.811 8.62992 51.0866 9.03937 50.5512 10.0079V10ZM43.1654 8.51181C40.4882 8.51181 39.2283 10.2441 39.2283 12.6299C39.2283 15.0079 40.4882 16.7244 43.1654 16.7244C45.8425 16.7244 47.1181 15.0079 47.1181 12.6299C47.1181 10.2441 45.8268 8.51181 43.1575 8.51181H43.1654ZM43.1654 15.1575C41.9055 15.1575 41.2283 14.3386 41.2283 12.6299C41.2283 10.9134 41.9055 10.0945 43.1732 10.0945C44.4331 10.0945 45.0945 10.9134 45.0945 12.6299C45.0945 14.3386 44.4252 15.1575 43.1575 15.1575H43.1654ZM74.9055 9.99213H74.8425V8.70866H73.0236V16.5354H74.9606V11.874C75.5669 10.7244 76.3071 10.3465 77.5433 10.3465H77.7402V8.66142C77.565 8.64205 77.3889 8.63157 77.2126 8.62992C76.1654 8.62992 75.4409 9.03937 74.8976 10.0079H74.9055V9.99213ZM67.7559 5.51181H64.1496V16.5354H66.2283V12.7008H67.748C70.1024 12.7008 71.811 11.4331 71.811 9.06299C71.811 6.70079 70.1024 5.51181 67.748 5.51181H67.7559ZM67.7717 11.0866H66.2283V7.14173H67.7638C69.0236 7.14173 69.6378 7.83465 69.6378 9.06299C69.6378 10.2992 69.063 11.0866 67.7638 11.0866H67.7717ZM96.1339 10.9055C96.1339 10.315 96.7795 10.0866 97.4724 10.0866C98.2047 10.0945 98.937 10.2126 99.6378 10.4252V8.8189C98.8827 8.60551 98.1 8.50472 97.315 8.51968C95.4409 8.51968 94.126 9.40945 94.126 10.8583C94.126 13.6693 98 12.9449 98 14.315C98 14.9843 97.3937 15.1654 96.5039 15.1654C95.874 15.1654 94.874 14.9291 94.1496 14.6693V16.2677C94.8764 16.5583 95.6504 16.7157 96.4331 16.7323C98.2598 16.7323 100 16.189 100 14.2362C100.024 11.5197 96.1417 12.2205 96.1417 10.9055H96.1339ZM82.3543 8.51968C79.8504 8.51968 78.5512 10.4646 78.5512 12.5827C78.5512 15.4961 80.0787 16.7323 82.5669 16.7323C83.5425 16.7343 84.5126 16.5829 85.4409 16.2835V14.6693C84.6299 14.9685 83.8898 15.1496 83.1024 15.1496C81.6535 15.1496 80.685 14.7559 80.6378 13.0472H85.6457C85.6929 12.6614 85.7165 12.2756 85.7087 11.8976C85.7087 10.2441 84.8346 8.51968 82.3465 8.51968H82.3543ZM80.6535 11.7638C80.7717 10.6772 81.3622 9.98425 82.3307 9.98425C83.3701 9.98425 83.685 10.811 83.685 11.7638H80.6535ZM89.0787 10.9055C89.0787 10.315 89.7165 10.0866 90.4094 10.0866C91.1417 10.0945 91.874 10.2126 92.5748 10.4252V8.8189C91.822 8.6063 91.0417 8.50551 90.2598 8.51968C88.3858 8.51968 87.063 9.40945 87.063 10.8583C87.063 13.6693 90.9449 12.9449 90.9449 14.315C90.9449 14.9843 90.3307 15.1654 89.4488 15.1654C88.8189 15.1654 87.8189 14.9291 87.0866 14.6693V16.2677C87.8134 16.5584 88.5874 16.7158 89.3701 16.7323C91.1968 16.7323 92.9449 16.189 92.9449 14.2362C92.9606 11.5197 89.0787 12.2205 89.0787 10.9055ZM1.35433 10.2362C1.35433 13.7559 3.40157 16.7874 6.3622 18.2283L2.12598 6.62205C1.61731 7.75905 1.35435 8.99063 1.35433 10.2362ZM10.2362 19.1181C11.2677 19.1181 12.2598 18.937 13.189 18.6142L13.126 18.4961L10.3937 11.0157L7.73228 18.7559C8.51968 18.9921 9.3622 19.1181 10.2362 19.1181ZM11.4567 6.07087L14.6693 15.622L15.5591 12.6614C15.937 11.4331 16.2283 10.5512 16.2283 9.7874C16.2283 8.68504 15.8346 7.92913 15.5039 7.34646C15.0472 6.6063 14.6299 5.98425 14.6299 5.25984C14.6299 4.44094 15.2441 3.68504 16.126 3.68504H16.2362C14.5996 2.18261 12.4579 1.35063 10.2362 1.35433C8.7652 1.35406 7.3172 1.71947 6.02245 2.41769C4.72771 3.11592 3.62684 4.12506 2.8189 5.35433L3.38583 5.37008C4.31496 5.37008 5.74803 5.25197 5.74803 5.25197C6.23622 5.22835 6.29134 5.92913 5.81102 5.98425C5.81102 5.98425 5.33071 6.04724 4.7874 6.07087L8.0315 15.6929L9.97638 9.86614L8.59055 6.07087C8.28016 6.05374 7.97031 6.02748 7.66142 5.99213C7.1811 5.96063 7.23622 5.22835 7.71654 5.25197C7.71654 5.25197 9.1811 5.37008 10.0551 5.37008C10.9843 5.37008 12.4173 5.25197 12.4173 5.25197C12.8976 5.22835 12.9606 5.92913 12.4803 5.98425C12.4803 5.98425 12 6.03937 11.4567 6.07087ZM14.7008 17.9134C16.0444 17.1321 17.1595 16.0119 17.9347 14.6647C18.7098 13.3176 19.118 11.7905 19.1181 10.2362C19.1181 8.69291 18.7244 7.24409 18.0315 5.97638C18.1722 7.37109 17.961 8.77882 17.4173 10.0709L14.7008 17.9134ZM10.2362 20.4724C7.52141 20.4724 4.91778 19.394 2.99812 17.4743C1.07846 15.5546 0 12.951 0 10.2362C0 7.52141 1.07846 4.91778 2.99812 2.99812C4.91778 1.07846 7.52141 0 10.2362 0C12.951 0 15.5546 1.07846 17.4743 2.99812C19.394 4.91778 20.4724 7.52141 20.4724 10.2362C20.4724 12.951 19.394 15.5546 17.4743 17.4743C15.5546 19.394 12.951 20.4724 10.2362 20.4724Z" fill="#163B54"/>
</g>
<defs>
<clipPath id="clip0_1_372">
<rect width="100" height="20.4724" fill="white"/>
</clipPath>
</defs>
</svg>

<svg xmlns="http://www.w3.org/2000/svg" width="304.762" height="64" fill="none" viewBox="0 0 100 21"><g clip-path="url(#a)"><path fill="#163B54" d="m37.457 5.512-2.197 8.44-2.197-8.44H30.85l.512 1.81-1.929 6.914-2.11-8.724h-2.126l2.992 11.023h2.33l1.796-5.897 1.677 5.897h2.323l3.15-11.023h-2.008ZM59.81 8.709a7.084 7.084 0 0 0-1.465-.181c-2.677 0-4.141 1.787-4.141 4.409 0 2.606 1.464 3.795 3.189 3.795.916-.03 1.8-.352 2.52-.921v.724h1.834V5.512h-1.937v3.197Zm0 5.575c-.63.574-1.22.89-1.843.89-1.07 0-1.755-.71-1.755-2.37 0-1.796.85-2.733 2.33-2.733.433 0 .866.087 1.26.244v3.969h.008ZM50.551 10h-.07V8.709h-1.812v7.826h1.945v-4.661c.607-1.15 1.347-1.527 2.583-1.527h.197V8.66a5.248 5.248 0 0 0-.528-.031c-1.055 0-1.78.41-2.315 1.378V10Zm-7.386-1.488c-2.677 0-3.937 1.732-3.937 4.118 0 2.378 1.26 4.094 3.937 4.094 2.678 0 3.953-1.716 3.953-4.094 0-2.386-1.291-4.118-3.96-4.118h.007Zm0 6.646c-1.26 0-1.937-.82-1.937-2.528 0-1.717.678-2.536 1.945-2.536 1.26 0 1.921.82 1.921 2.536 0 1.709-.669 2.527-1.937 2.527h.008Zm31.74-5.166h-.063V8.71h-1.818v7.826h1.937v-4.661c.606-1.15 1.346-1.527 2.582-1.527h.197V8.66a5.248 5.248 0 0 0-.527-.031c-1.048 0-1.772.41-2.315 1.378h.008v-.016Zm-7.15-4.48H64.15v11.023h2.078v-3.834h1.52c2.354 0 4.063-1.268 4.063-3.638 0-2.362-1.709-3.551-4.063-3.551h.008Zm.017 5.575h-1.544V7.142h1.536c1.26 0 1.874.693 1.874 1.921 0 1.236-.575 2.024-1.874 2.024h.008Zm28.362-.181c0-.591.645-.82 1.338-.82a7.77 7.77 0 0 1 2.166.34V8.818a7.982 7.982 0 0 0-2.323-.3c-1.874 0-3.189.89-3.189 2.34 0 2.81 3.874 2.086 3.874 3.456 0 .67-.606.85-1.496.85-.63 0-1.63-.236-2.354-.496v1.599c.726.29 1.5.448 2.283.464 1.827 0 3.567-.543 3.567-2.496.024-2.716-3.858-2.016-3.858-3.33h-.008ZM82.354 8.52c-2.504 0-3.803 1.945-3.803 4.063 0 2.913 1.528 4.15 4.016 4.15a9.302 9.302 0 0 0 2.874-.45V14.67c-.811.3-1.551.48-2.339.48-1.449 0-2.417-.393-2.464-2.102h5.008c.047-.386.07-.771.063-1.15 0-1.653-.874-3.377-3.362-3.377h.007Zm-1.7 3.244c.118-1.087.708-1.78 1.677-1.78 1.04 0 1.354.827 1.354 1.78h-3.032Zm8.425-.858c0-.591.638-.82 1.33-.82a7.77 7.77 0 0 1 2.166.34V8.818a7.987 7.987 0 0 0-2.315-.3c-1.874 0-3.197.89-3.197 2.34 0 2.81 3.882 2.086 3.882 3.456 0 .67-.614.85-1.496.85-.63 0-1.63-.236-2.362-.496v1.599c.726.29 1.5.448 2.283.464 1.827 0 3.575-.543 3.575-2.496.016-2.716-3.866-2.016-3.866-3.33Zm-87.725-.67a8.883 8.883 0 0 0 5.008 7.992L2.126 6.622a8.85 8.85 0 0 0-.772 3.614Zm8.882 8.882a8.98 8.98 0 0 0 2.953-.504l-.063-.118-2.732-7.48-2.662 7.74c.788.236 1.63.362 2.504.362Zm1.22-13.047 3.213 9.551.89-2.96c.378-1.229.67-2.11.67-2.875 0-1.102-.394-1.858-.725-2.44-.457-.74-.874-1.363-.874-2.087 0-.82.614-1.575 1.496-1.575h.11a8.85 8.85 0 0 0-6-2.33 8.874 8.874 0 0 0-7.417 4l.567.015c.929 0 2.362-.118 2.362-.118.488-.024.543.677.063.732 0 0-.48.063-1.024.087l3.244 9.622 1.945-5.827-1.385-3.795c-.31-.017-.62-.044-.93-.079-.48-.031-.425-.764.056-.74 0 0 1.464.118 2.338.118.93 0 2.362-.118 2.362-.118.48-.024.544.677.063.732 0 0-.48.055-1.023.087Zm3.245 11.842a8.883 8.883 0 0 0 3.33-11.937 8.387 8.387 0 0 1-.614 4.095l-2.716 7.842Zm-4.465 2.56a10.236 10.236 0 1 1 0-20.473 10.236 10.236 0 0 1 0 20.472Z"/></g><defs><clipPath id="a"><path fill="#fff" d="M0 0h100v20.472H0z"/></clipPath></defs></svg>
